X: 1047
T: Sawney.
%R: march, reel
B: Henry Playford "Apollo's Banquet", London 1687 (5th Edition)
F: https://archive.org/details/apollosbanquetco01rugg
Z: 2017 John Chambers <jc:trillian.mit.edu>
M: C|
L: 1/8
K: C
% - - - - - - - - - -
|:\
c2cd e2dc | B3A d3G | c3d (ef)ee | c2g2 g2G2 |\
c3d e2(dc) | B3A d2(cB) | A3G ABcA | G2c2 c4 :|
|:\
ccgg efg2 | B2d2 d3d | c2g2 e3d | (cd)(ef) g3c |\
c2gg (ab)(fe) | (dc)(BA) B2(AG) | A3G ABcA | G2c2 c4 |]
% - - - - - - - - - -

%%sep 1 1 500
%%sep 1 1 500

